fs/text_line_spacing_24_regular.svg

<svg viewBox="0 0 24 24" fill="none" xmlns="http://www.w3.org/2000/svg" height="1em" width="1em">
  <path d="M19.5303 3.21967L21.5303 5.21967C21.8232 5.51256 21.8232 5.98744 21.5303 6.28033C21.2374 6.57322 20.7626 6.57322 20.4697 6.28033L19.75 5.56066V10.25C19.75 10.6642 19.4142 11 19 11C18.5858 11 18.25 10.6642 18.25 10.25V5.56066L17.5303 6.28033C17.2374 6.57322 16.7626 6.57322 16.4697 6.28033C16.1768 5.98744 16.1768 5.51256 16.4697 5.21967L18.4697 3.21967C18.6155 3.0738 18.8066 3.00057 18.9978 3L19 3L19.0022 3C19.1031 3.0003 19.1993 3.02051 19.2871 3.05691C19.3755 3.09351 19.4584 3.14776 19.5303 3.21967ZM2 5.75C2 5.33579 2.33579 5 2.75 5H11.25C11.6642 5 12 5.33579 12 5.75C12 6.16421 11.6642 6.5 11.25 6.5H2.75C2.33579 6.5 2 6.16421 2 5.75ZM2 12.25C2 11.8358 2.33579 11.5 2.75 11.5H14.25C14.6642 11.5 15 11.8358 15 12.25C15 12.6642 14.6642 13 14.25 13H2.75C2.33579 13 2 12.6642 2 12.25ZM2.75 18C2.33579 18 2 18.3358 2 18.75C2 19.1642 2.33579 19.5 2.75 19.5H11.25C11.6642 19.5 12 19.1642 12 18.75C12 18.3358 11.6642 18 11.25 18H2.75ZM18.25 18.4393V13.75C18.25 13.3358 18.5858 13 19 13C19.4142 13 19.75 13.3358 19.75 13.75V18.4393L20.4697 17.7197C20.7626 17.4268 21.2374 17.4268 21.5303 17.7197C21.8232 18.0126 21.8232 18.4874 21.5303 18.7803L19.5303 20.7803C19.4584 20.8522 19.3755 20.9065 19.2871 20.9431C19.2099 20.9751 19.1262 20.9946 19.0386 20.999C19.0258 20.9997 19.0129 21 19 21C18.8983 21 18.8013 20.9798 18.7129 20.9431C18.6245 20.9065 18.5416 20.8522 18.4697 20.7803L16.4697 18.7803C16.1768 18.4874 16.1768 18.0126 16.4697 17.7197C16.7626 17.4268 17.2374 17.4268 17.5303 17.7197L18.25 18.4393Z" fill="#212121"/>
</svg>

<svg viewBox="0 0 24 24" fill="none" xmlns="http://www.w3.org/2000/svg" height="1em" width="1em">
  <path d="m19.53 3.22 2 2a.75.75 0 0 1-1.06 1.06l-.72-.72v4.69a.75.75 0 0 1-1.5 0V5.56l-.72.72a.75.75 0 1 1-1.06-1.06l2-2a.748.748 0 0 1 .528-.22h.004a.748.748 0 0 1 .528.22ZM2 5.75A.75.75 0 0 1 2.75 5h8.5a.75.75 0 0 1 0 1.5h-8.5A.75.75 0 0 1 2 5.75Zm0 6.5a.75.75 0 0 1 .75-.75h11.5a.75.75 0 0 1 0 1.5H2.75a.75.75 0 0 1-.75-.75ZM2.75 18a.75.75 0 0 0 0 1.5h8.5a.75.75 0 0 0 0-1.5h-8.5Zm15.5.44v-4.69a.75.75 0 0 1 1.5 0v4.69l.72-.72a.75.75 0 1 1 1.06 1.06l-2 2a.748.748 0 0 1-1.06 0l-2-2a.75.75 0 1 1 1.06-1.06l.72.72Z" fill="#212121"/>
</svg>
